X:1
T:Duo Seraphim
T:Leon Leoni
T:Duo Seraphim
C:Leon Leoni
%%score [ 1 2 ] { 3 | 4 }
L:1/8
Q:1/4=98
M:4/4
K:F
V:1 alto1 nm="Cantus 1" snm="C 1"
V:2 alto1 nm="Cantus 2" snm="C 2"
V:3 treble nm="Partitura" snm="Part."
V:4 bass 
V:1
 x8 | z2 z2 z2 x2 | F8 | G8 | A4 B4 | c8 | z4 F4 | G2 A4 G2 | A8 | z8 | z4 A4 | B8 | A6 c2 | d8 | %14
w: ||Du-|o|Se- ra-|phim|cla-|ma- * *|bant,||cla-|ma-|bant, cla-|ma-|
 c2 c3 B A2 | G2 F4 E2 | F2 A2 B4 | A4 z4 | z2 A3 G F2 | E2 D4 ^C2 | D2 d3 c B2 | A2 G4 ^F2 | %22
w: bant al- ter ad|al- te- *|rum, cla- ma-|bant|al- ter ad|al- te- *|rum, al- ter ad|al- te- *|
 G2 c3 B A2 | G2 F4 E2 | F8- | F8- | F8- | F8 | F8 | G8 | A8 | z8 | z4 d4- | d4 c4 | B8 | A4 G4- | %36
w: rum, al- ter ad|al- te- *|rum.|_|||San-||ctus,||San-|||ctus Do-|
 G2 G2 A4 | B8 | A2 DEFGAB | c3 B A2 GF | E2 F4 E2 | !fermata!F8 | c8 | c4 A4 | A2 B2 c4- | %45
w: * mi- nus|De-|us sa- * * * * *||* * ba-|oth.|Ple-|na est|om- nis ter-|
 c2 =BA B4 | c2 G3 A B2 | A4 G2 D2- | DE F2 z2 D2- | DE F2 E4 | D2 A3 B c2- | c2 G3 G A2 | %52
w: |ra glo- ri- a|e- ius, glo-|* ri- a, glo-|* ri- a e-|ius, glo- ri- a,|_ glo- ri- a|
 B3 A G2 F2 | E2 D2 E4 | ^F8- | F8- | F8- | F8 | A4 A2 A2 | A2 B2 A3 A | A4 d4- | d2 cB c2 A2 | %62
w: e- * * *||ius.|_|||Tres sunt qui|te- sti- mo- ni-|um dant|_ _ _ _ in|
 BABGAGAF | G2 A2 G4 | A4 F2 G2 | A2 B2 c4- | c4 =B4 | c8 | z8 | z8 | G4 B4- | B2 A2 G4 | z4 D4 | %73
w: cœ- * * * * * * *||lo, Pa- *|||ter,|||et Spi-|* ri- tus,|et|
 F6 E2 | D4 A4- | A2 GF E4 | ^F8 | A2 B2 c4 | B2 G2 A4 | z2 c2 A4 | B4 F4- | F4 G4 | !fermata!A8 |] %83
w: Spi- ri-|tus San-||ctus,|et hi tres|u- num sunt,|et hi|tres u-|* num|sunt.|
V:2
 x8 | z2 z2 z2 x2 | z8 | z8 | F8 | G8 | A4 B4 | c8 | z4 F4 | G2 A4 G2 | A8 | z8 | z4 A4 | B8 | %14
w: ||||Du-|o|Se- ra-|phim|cla-|ma- * *|bant,||cla-|ma-|
 A4 z2 c2- | cB A2 G2 G2 | F4 z4 | z2 A2 B4 | A4 z2 A2- | AG F2 E2 E2 | D4 z2 d2- | dc B2 A2 A2 | %22
w: bant al-|* ter ad al- te-|rum,|cla- ma-|bant al-|* ter ad al- te-|rum, al-|* ter ad al- te-|
 G4 z2 c2- | cB A2 G2 G2 | A8- | A8- | A8- | A8 | z8 | z8 | F8 | G8 | A4 F4- | F2 D2 F4- | F4 E4 | %35
w: rum, al-|* ter ad al- te-|rum.|_|||||San-||ctus, San-|||
 F4 E4- | E2 E2 ^F4 | G8 | F4 DEFG | AB c4 BA | G2 A2 G3 G | A8 | A8 | A4 F4 | F4 E4 | D8 | %46
w: ctus Do-|* mi- nus|De-|us sa- * * *||* * * ba-|oth.|Ple-|na est|om- nis|ter-|
 E2 E3 F G2 | ^F4 G4 | z2 D3 E F2- | F2 D4 ^C2 | D2 F3 G A2 | z2 E3 E ^F2 | G3 F E2 D2 | %53
w: ra glo- ri- a|e- ius,|glo- ri- a|_ e- *|ius, glo- ri- a,|glo- ri- a|e- * * *|
 ^C2 D4 C2 | D8- | D8- | D8- | D8 | F4 ^F2 F2 | ^F2 G2 =F3 F | F4 B4- | B2 AG A2 F2 | GFG_EFEFD | %63
w: |ius.|_|||Tres sunt qui|te- sti- mo- ni-|um dant|_ _ _ _ in|cœ- * * * * * * *|
 E2 F4 E2 | F8 | z8 | z8 | E6 D2 | E2 F2 G4- | G4 ^F4 | G8 | G4 B4- | B2 A2 G4 | D4 F4- | %74
w: |lo,|||Ver- *|||bum|et Spi-|* ri- tus,|et Spi-|
 F2 E2 D4- | D4 ^C4 | D8 | F2 G2 A2 F2- | F2 E2 F2 A2- | A2 G2 F4 | D2 C2 D2 E2 | F4 D4 | F8 |] %83
w: * ri- tus|_ San-|ctus,|et hi tres u-|* num sunt, et|_ hi tres|u- * * *|* num|sunt.|
V:3
 x8 | z2 z2 z2 x2 | [Ac]8 | [GB]8 | [FA]4 [FB]4 | [EGc]8 | [CA]4 [FB]4 | [CEc]8 | [CF]8 | [Ec]8 | %10
 [FAc]8 | [FBd]8 | [FAc]8 | [FBd]8 | [CFA]8 | [Gc]8 | [CFA]4 [DFB]4 | [CFA]4 [DFB]4 | [CFA]8 | %19
 [EA]8 | [DFA]8 | [DA]8 | [GB]2 [EGc]2 [FAc]4 | [CG]8 | z2 c3 B [Ac-]2 | cB [Ac]3 B [Ac-]2 | %26
 cB [Ac]3 B A2 | [C-A]2 [CG]2 !fermata!F4 | F8 | [CG]8 | [FA]8 | [EGc]8 | [FA]4 [FBd]4- | %33
 [FBd]4 [FAc]4 | [Ec]8 | [CFA]4 [EGc]4- | [EGc]2 [EG]2 [D^FA]4 | [DGB]8 | A8 | [EA]6 [DG]2 | %40
 [CG]8 | [CF]8 | [FAcf]8 | [FAc]8 | [DF]4 [CEG]4 | G8 | G8 | D8 | D8 | D4 E4 | F6 E2 | %51
 [Ec]4 [Gc]2 [D^FA]2 | G8 | E2 D2 E4 | z2 A3 G [^FA-]2 | AG [^FA]3 G [FA-]2 | AG [^FA]3 G F2 | %57
 [A,-^F]2 [A,E]2 !fermata!D4 | D8 | D8 | D8 | F8 | _E4 D4 | G8 | F8 | [CF]4 [CEG]4 | [DG]8 | %67
 [EG]8 | [EG]8 | [DA]8 | [B,G]8 | [DG]8 | [DG]8 | [DF]8 | [DF]8 | [A,E]8 | [A,D^F]8 | %77
 [DFA]2 [DGB]2 [FAc]4 | [DFB]2 [CEG]2 [CFA]4 | [CFA]4 [DFA]4 | [B,F]8 | [B,F]4 [B,DG]4 | [CF]8 |] %83
V:4
 x8 | z2 z2 z2 x2 | F,8- | F,4 _E,4 | D,8 | C,8 | F,4 D,4 | C,8 | F,,8 | C,8 | F,,4 F,4 | B,,8 | %12
 F,4 F,4 | B,,8 | F,,8 | C,8 | F,,2 F,2 B,,4 | F,2 F,2 B,,4 | F,,8 | A,,8 | D,8- | D,4 D,4 | %22
 G,2 C,2 F,4 | C,8 | F,,8- | F,,8- | F,,8- | F,,8 | F,8- | F,4 E,4 | F,4 D,4 | C,8 | F,,4 B,,4- | %33
 B,,4 A,,4 | G,,8 | F,,4 C,4- | C,2 C,2 A,,4 | G,,8 | D,8 | A,,6 B,,2 | C,4 C,4 | !fermata!F,,8 | %42
 F,8 | F,4 F,4 | D,4 C,4 | G,,8 | C,2 C,3 C, G,,2 | D,4 G,,4- | G,,4 D,2 D,2- | D,D, D,2 A,,4 | %50
 D,6 A,,2- | A,,B,, C,4 A,,2 | G,,4 G,,4 | A,,8 | D,8- | D,8- | D,8- | D,8 | D,4 D,2 D,2 | %59
 D,2 G,,2 D,3 D, | D,4 B,,C,D,E, | F,4 F,4 | _E,4 D,4 | C,8 | F,,4 F,4- | F,4 E,4 | D,8 | C,8 | %68
 C,6 B,,2 | A,,8 | G,,8 | G,,4 G,,4- | G,,4 G,,4 | D,8- | D,8 | A,,8 | D,8 | D,2 G,2 F,4 | %78
 B,,2 C,2 F,,2 F,2- | F,2 C,2 D,4 | B,,8- | B,,4 B,,4 | F,,8 |] %83

